Origami/48x48/apps/distributor-logo-korora.svg

<svg width="48" height="48" version="1" xmlns="http://www.w3.org/2000/svg">
 <path d="m30 5c-7.732 0-14 6.268-14 14s6.268 14 14 14 14-6.268 14-14v-12c0-1.11-0.89-2-2-2z" style="opacity:.2"/>
 <path d="m18 45c7.732 0 14-6.268 14-14s-6.268-14-14-14-14 6.268-14 14v12c0 1.11 0.89 2 2 2" style="opacity:.2"/>
 <path d="m30 4c-7.732 0-14 6.268-14 14s6.268 14 14 14 14-6.268 14-14v-12c0-1.11-0.89-2-2-2z" style="fill:#666666"/>
 <path d="m30 29c5.54 0 10-4.46 10-10v-10h-10c-5.54 0-10 4.46-10 10s4.46 10 10 10z" style="opacity:.2"/>
 <path d="m30 28c5.54 0 10-4.46 10-10v-10h-10c-5.54 0-10 4.46-10 10s4.46 10 10 10z" style="fill:#ececec"/>
 <path d="m30 4c-7.732 0-14 6.268-14 14 5e-3 0.137 0.011 0.273 0.02 0.41 0.316-7.493 6.48-13.4059 13.98-13.41h12c1.11 0 2 0.89 2 2v-1c0-1.11-0.89-2-2-2z" style="fill:#ffffff;opacity:.1"/>
 <path d="m18 16c-7.732 0-14 6.268-14 14v12c0 1.11 0.89 2 2 2h12c7.732 0 14-6.268 14-14s-6.268-14-14-14z" style="fill:#808080"/>
 <path d="M 18,16 A 14,14 0 0 0 4,30 V 31 A 14,14 0 0 1 18,17 14,14 0 0 1 31.98,30.59 14,14 0 0 0 32,30 14,14 0 0 0 18,16 Z" style="fill:#ffffff;opacity:.2"/>
 <path d="m18 21c-5.54 0-10 4.46-10 10v10h10c5.54 0 10-4.46 10-10s-4.46-10-10-10z" style="opacity:.2"/>
 <path d="m18 20c-5.54 0-10 4.46-10 10v10h10c5.54 0 10-4.46 10-10s-4.46-10-10-10z" style="fill:#ffffff"/>
</svg>

<svg xmlns="http://www.w3.org/2000/svg" width="48" height="48" version="1">
 <path style="opacity:0.2" d="M 30,5 C 22.268,5 16,11.268 16,19 16,26.732 22.268,33 30,33 37.732,33 44,26.732 44,19 V 7 C 44,5.89 43.11,5 42,5 Z"/>
 <path style="opacity:0.2" d="M 18,45 C 25.732,45 32,38.732 32,31 32,23.268 25.732,17 18,17 10.268,17 4,23.268 4,31 V 43 C 4,44.11 4.89,45 6,45"/>
 <path style="fill:#666666" d="M 30,4 C 22.268,4 16,10.268 16,18 16,25.732 22.268,32 30,32 37.732,32 44,25.732 44,18 V 6 C 44,4.89 43.11,4 42,4 Z"/>
 <path style="opacity:0.2" d="M 30,29 C 35.54,29 40,24.54 40,19 V 9 H 30 C 24.46,9 20,13.46 20,19 20,24.54 24.46,29 30,29 Z"/>
 <path style="fill:#ececec" d="M 30,28 C 35.54,28 40,23.54 40,18 V 8 H 30 C 24.46,8 20,12.46 20,18 20,23.54 24.46,28 30,28 Z"/>
 <path style="opacity:0.1;fill:#ffffff" d="M 30,4 C 22.268,4 16,10.268 16,18 16.005,18.137 16.011,18.273 16.02,18.41 16.336,10.917 22.5,5.0041 30,5 H 42 C 43.11,5 44,5.89 44,7 V 6 C 44,4.89 43.11,4 42,4 Z"/>
 <path style="fill:#808080" d="M 18,16 C 10.268,16 4,22.268 4,30 V 42 C 4,43.11 4.89,44 6,44 H 18 C 25.732,44 32,37.732 32,30 32,22.268 25.732,16 18,16 Z"/>
 <path style="opacity:0.2;fill:#ffffff" d="M 18,16 A 14,14 0 0 0 4,30 V 31 A 14,14 0 0 1 18,17 14,14 0 0 1 31.98,30.59 14,14 0 0 0 32,30 14,14 0 0 0 18,16 Z"/>
 <path style="opacity:0.2" d="M 18,21 C 12.46,21 8,25.46 8,31 V 41 H 18 C 23.54,41 28,36.54 28,31 28,25.46 23.54,21 18,21 Z"/>
 <path style="fill:#ffffff" d="M 18,20 C 12.46,20 8,24.46 8,30 V 40 H 18 C 23.54,40 28,35.54 28,30 28,24.46 23.54,20 18,20 Z"/>
</svg>
